X: 1
P: Bonnie George Campbell
C: from John Chambers
C: arr. T. Traub 6-27-03
R: Waltz
M: 3/4
K: D
L: 1/4
A/G/|"D" F > F F|"A"E F A|"G"B > B B|"D"A3|"G"d > c B|"D"A F D|"E7"D > F D|"A7"E3|
"D"F > F F|"A"E F A|"G"B > B B|"D" A3|"G"d > c B|"D"A F D|"A7"E > F E|"D"D3 ||
"Bm"d > c B|"Bm"B F F|"G"B > c B|"A"A3|"Bm"B A F|"Bm"d2 F |"E"F > E D|"A"E A G|
"D"F > F F|"A"E F A|"G"B > B B|"F#m"A3| "G"d > c B|"D"A F D|"A7"E > F E|"D" D3 |]
